src/assets/svg/myata.svg

<svg width="180" height="160" viewBox="0 0 180 160" fill="none" xmlns="http://www.w3.org/2000/svg">
<path d="M109.524 102.224C109.523 102.224 109.521 102.224 109.52 102.224C109.481 102.257 109.432 102.302 109.421 102.312L109.404 102.328C109.388 102.343 109.358 102.374 109.333 102.399L109.331 102.401L109.524 102.224ZM109.524 102.224C109.895 101.852 110.267 101.48 110.64 101.108L113.136 98.6116L113.209 98.5389C114.846 96.9022 116.171 95.5769 117.273 94.6557C118.343 93.7613 119.554 92.932 120.96 92.8214C122.873 92.671 124.747 93.4472 125.993 94.9064C126.909 95.979 127.179 97.4217 127.303 98.8109C127.431 100.242 127.431 102.117 127.431 104.432V104.534V116.973C127.431 117.029 127.431 117.085 127.431 117.14C127.432 117.954 127.432 118.671 127.265 119.368C127.118 119.98 126.876 120.566 126.547 121.103C126.172 121.714 125.664 122.221 125.088 122.795C125.049 122.834 125.01 122.874 124.971 122.913L95.1074 152.776L95.0529 152.831C94.3073 153.577 93.664 154.22 93.0909 154.706C92.486 155.22 91.8289 155.675 91.0209 155.938C89.8156 156.329 88.5173 156.329 87.3121 155.937C86.5042 155.674 85.8473 155.219 85.2425 154.705C84.6695 154.219 84.0264 153.575 83.2809 152.829L83.2267 152.775L83.2265 152.775L53.5502 123.093C53.5501 123.093 53.5501 123.093 53.55 123.093C53.5105 123.053 53.4712 123.014 53.4323 122.975C52.8563 122.4 52.3485 121.893 51.974 121.282C51.645 120.745 51.4026 120.16 51.2556 119.548C51.0883 118.851 51.089 118.133 51.0897 117.32C51.0898 117.264 51.0898 117.209 51.0898 117.153V104.584L51.0898 104.482C51.0898 102.145 51.0898 100.255 51.2174 98.8147C51.3411 97.419 51.6095 95.9677 52.5274 94.893L54.0482 96.1919L52.5274 94.893C53.7748 93.4325 55.6459 92.6575 57.5606 92.8082C58.9695 92.9191 60.1855 93.7555 61.2599 94.6549C62.3688 95.5833 63.7051 96.9197 65.3573 98.5719L65.4295 98.6441L86.0927 119.307C86.9013 120.116 87.4237 120.636 87.8533 121.001C88.2644 121.35 88.4588 121.439 88.565 121.473C88.9635 121.604 89.3976 121.605 89.7969 121.477C89.9039 121.442 90.0984 121.355 90.5095 121.01C90.9395 120.649 91.4627 120.134 92.2731 119.332C95.8079 115.836 101.454 110.239 109.33 102.401L109.524 102.224ZM109.369 102.363L109.368 102.363C109.371 102.361 109.371 102.361 109.369 102.363Z" fill="url(#paint0_linear_563_33273)" stroke="white" stroke-width="4"/>
<path d="M23.5982 97.8609L23.6018 97.8715L23.6056 97.8822C24.4791 100.349 24.9012 102.946 24.8599 105.547C24.8381 106.92 25.5023 108.142 26.4986 108.881C27.519 109.638 28.968 109.93 30.3514 109.266C38.3384 105.427 43.3146 99.6456 45.356 93.059C47.3906 86.4943 46.4413 79.3515 43.0043 72.8908C41.1127 69.3339 38.9484 66.9068 37.0081 64.731C36.7113 64.3982 36.4197 64.0712 36.1352 63.747C34.0011 61.3152 32.1287 58.9123 30.778 54.9557L30.7706 54.9343C29.8971 52.4672 29.475 49.871 29.5163 47.2694C29.538 45.8965 28.8738 44.6746 27.8775 43.9357C26.8572 43.1789 25.408 42.8862 24.0247 43.5511C16.0376 47.3894 11.0625 53.1712 9.02162 59.7577C6.98759 66.3223 7.93702 73.4651 11.3718 79.9257C13.2634 83.4825 15.4278 85.9098 17.368 88.0855L17.3798 88.0987C17.6725 88.427 17.9602 88.7497 18.2409 89.0696C20.3751 91.5013 22.2475 93.9042 23.5982 97.8609Z" stroke="white" stroke-width="4"/>
<path d="M41.2382 73.8299C47.6841 85.9466 44.5958 100.201 29.4846 107.463C28.2209 108.07 26.8371 106.981 26.8594 105.579C26.9044 102.74 26.4438 99.907 25.4906 97.2147C22.5451 88.5862 17.2292 86.681 13.1373 78.9867C6.69548 66.87 9.77973 52.6156 24.8909 45.3537C26.1546 44.7462 27.5385 45.8357 27.5162 47.2377C27.4711 50.0767 27.9317 52.9096 28.8849 55.6019C31.8305 64.2304 37.1463 66.1356 41.2382 73.8299Z" fill="url(#paint1_linear_563_33273)"/>
<path d="M167.704 78.9947C163.608 86.689 158.292 88.5901 155.339 97.2146C154.383 99.9077 153.921 102.742 153.964 105.582C153.986 106.982 152.601 108.071 151.341 107.463C136.233 100.189 133.157 85.9302 139.611 73.8217C142.48 68.4353 145.942 65.8876 148.777 61.8869C149.286 61.1688 148.786 60.2078 147.905 60.2078C146.759 60.2075 145.613 60.2756 144.474 60.4118C142.766 60.6357 141.079 60.9959 139.428 61.4888C137.417 62.0526 135.494 62.8915 133.712 63.9815C131.774 65.1687 128.437 67.8653 124.802 71.9817L113.66 83.1234L94.022 102.765C92.4379 104.35 91.6459 105.142 90.7325 105.439C89.9291 105.7 89.0637 105.7 88.2603 105.439C87.3469 105.142 86.5548 104.35 84.9706 102.766L74.1895 91.9845L50.6001 68.3992C50.5837 68.3827 50.5755 68.3745 50.5639 68.3628C50.5559 68.3547 50.5412 68.3395 50.5333 68.3313C50.5219 68.3194 50.5167 68.314 50.5063 68.3031C49.6183 67.3651 36.0118 52.8192 36.0118 42.1674C36.0099 41.1604 36.0616 40.154 36.1668 39.1525C36.6264 34.9757 38.0419 30.9608 40.3036 27.4193C41.4745 25.5612 42.8708 23.8552 44.4608 22.3401C45.5961 21.2473 46.8216 20.2525 48.1244 19.366C50.7556 17.5882 53.6749 16.2796 56.7529 15.4984C60.4527 14.5657 64.3059 14.4112 68.0685 15.0447C71.6146 15.6416 75.0074 16.9262 78.057 18.8238C78.228 18.9302 78.3136 18.9834 78.425 19.0639C78.5137 19.1279 78.6293 19.2197 78.7118 19.2916C78.8154 19.3819 78.9027 19.4693 79.0775 19.6441L85.1701 25.7389C86.7544 27.3238 87.5465 28.1163 88.46 28.4132C89.2636 28.6743 90.1292 28.6743 90.9327 28.4131C91.8463 28.1162 92.6384 27.3238 94.2227 25.7389L100.034 19.925C100.184 19.7749 100.259 19.6999 100.348 19.6212C100.418 19.5588 100.517 19.4779 100.592 19.4212C100.686 19.3498 100.758 19.302 100.901 19.2064C103.788 17.2802 107.021 15.9282 110.423 15.2262C114.01 14.4862 117.71 14.4842 121.298 15.2205C124.885 15.9569 128.286 17.416 131.291 19.509C134.296 21.6021 130.843 21.4263 132.778 24.5359C132.784 24.5452 132.791 24.5545 132.797 24.5639C132.866 24.6656 132.848 24.8005 132.761 24.8873C132.685 24.9637 132.569 24.9864 132.468 24.9464C131.551 24.5803 132.439 24.9759 132.35 24.9643C130.695 24.6542 131.998 24.2365 130.315 24.2373C129.989 24.2373 132.68 27.3663 132.35 27.3785C126.51 27.5712 120.741 29.0814 116.166 32.7145C114.462 34.0452 113.074 36.1348 111.743 37.8388L92.0239 57.558C91.9984 57.5834 91.9857 57.5961 91.9749 57.6068C90.4171 59.1411 87.9159 59.1402 86.3592 57.6048C86.3484 57.5941 86.3357 57.5814 86.3103 57.556L85.2944 56.5442L73.8264 45.0762L68.6329 39.879C68.5573 39.8034 68.5195 39.7655 68.4712 39.7136C68.3754 39.6107 68.4365 39.6796 68.3457 39.5722C68.2999 39.5181 68.0528 39.2043 67.5587 38.5766C67.0589 37.9415 66.4305 37.4147 65.7113 37.0327C64.7413 36.5174 63.6456 36.2863 62.5502 36.366C61.7886 36.4226 61.0456 36.6288 60.3638 36.9728C59.682 37.3168 59.0747 37.792 58.5768 38.371C58.0789 38.95 57.7 39.6216 57.462 40.3472C57.2239 41.0729 57.1313 41.8383 57.1895 42.5998C57.2452 43.4694 57.5172 44.5059 57.9603 45.2562L57.4506 44.5662C59.0041 46.9286 76.4522 63.9709 85.0146 72.2817C86.5876 73.8085 87.3741 74.5719 88.2815 74.8563C89.0782 75.106 89.9379 75.0996 90.7308 74.838C91.6338 74.5401 92.4128 73.7612 93.9707 72.2033L119.221 46.9528C123.777 42.9327 129.497 40.4706 135.549 39.9248C141.6 39.3789 147.668 40.7776 152.87 43.9175C153.044 44.0233 153.13 44.0762 153.177 44.1034C153.328 44.1896 153.41 44.2312 153.569 44.3004C153.619 44.3222 153.676 44.3453 153.789 44.3913C154.523 44.6879 155.256 45.0057 155.975 45.3536C171.082 52.6277 174.158 66.8862 167.704 78.9947Z" fill="url(#paint2_linear_563_33273)"/>
<path d="M167.706 78.9946C163.61 86.6889 158.294 88.59 155.34 97.2145C154.385 99.9076 153.922 102.742 153.966 105.582C153.987 106.982 152.603 108.071 151.342 107.463C136.235 100.189 133.159 85.9301 139.613 73.8216C142.848 67.7469 146.838 65.2828 149.832 60.2729C150.709 58.7952 151.428 57.2296 151.978 55.6017C153.259 51.9918 153.654 48.1284 153.132 44.3361C153.118 44.2349 153.214 44.16 153.308 44.199C154.202 44.5498 155.099 44.9292 155.976 45.3535C171.084 52.6276 174.16 66.8861 167.706 78.9946Z" fill="url(#paint3_linear_563_33273)"/>
<path d="M116.864 32.9422C120.157 30.0466 126.683 27.2095 132.348 27.3788L132.556 27.3852C135.331 27.4729 136.718 27.5168 137.151 27.1677C137.541 26.854 137.735 26.4173 137.708 25.9182C137.677 25.3628 136.828 24.4775 135.129 22.7069C134.022 21.5524 132.725 20.4081 131.289 19.5093C126.609 16.5793 124.884 15.9571 121.296 15.2208C117.708 14.4845 114.008 14.4864 110.421 15.2264C106.834 15.9665 103.436 17.4292 100.432 19.5253C99.0752 20.4727 96.7516 22.7576 94.6124 24.9777L94.6123 24.9777C92.8143 26.8438 91.9152 27.7768 90.9785 28.0874C90.1139 28.374 89.306 28.3721 88.4428 28.0814C87.5075 27.7663 86.6095 26.8255 84.8135 24.9438C82.5708 22.5942 80.0868 20.1471 78.6102 19.1786C75.4196 17.0859 71.8295 15.6783 68.0668 15.0449C65.1809 14.5591 62.2417 14.5368 59.3592 14.9736C58.5804 15.0916 58.191 15.1507 57.6548 15.4066C57.2746 15.588 56.6847 16.029 56.4031 16.3422C56.0059 16.7841 55.8397 17.1395 55.5074 17.8503C55.023 18.8862 54.6044 19.9525 54.2544 21.043C53.8724 22.2113 53.5752 23.4057 53.3651 24.6168C52.1213 31.5443 53.8342 39.0311 57.6999 44.9126C57.7274 44.9472 57.7913 44.9079 57.7741 44.8673C57.5074 44.2389 57.2343 43.3272 57.1877 42.6001C57.1296 41.8386 57.2222 41.0731 57.4602 40.3475C57.6983 39.6219 58.0771 38.9503 58.5751 38.3713C59.073 37.7922 59.6803 37.3171 60.3621 36.973C61.0439 36.629 61.7868 36.4228 62.5484 36.3663C63.6439 36.2866 64.7396 36.5176 65.7095 37.0329C66.3159 37.3551 67.3816 38.6666 68.0315 39.2792L73.8247 45.0764L85.2927 56.5444L86.3085 57.5562L86.3574 57.605C87.9142 59.1405 90.4153 59.1414 91.9732 57.607L92.0221 57.5582L111.741 37.8391C113.507 35.9488 115.218 34.3906 116.864 32.9422Z" fill="url(#paint4_linear_563_33273)"/>
<defs>
<linearGradient id="paint0_linear_563_33273" x1="53.0898" y1="122.511" x2="125.431" y2="122.511" gradientUnits="userSpaceOnUse">
<stop stop-color="#43B088"/>
<stop offset="0.00503" stop-color="#43B088"/>
<stop offset="1" stop-color="#52CC9F"/>
</linearGradient>
<linearGradient id="paint1_linear_563_33273" x1="27.1887" y1="44.1135" x2="27.1887" y2="108.703" gradientUnits="userSpaceOnUse">
<stop stop-color="#3FAB83"/>
<stop offset="1" stop-color="#66D5AD"/>
</linearGradient>
<linearGradient id="paint2_linear_563_33273" x1="36.0118" y1="61.6826" x2="170.891" y2="61.6826" gradientUnits="userSpaceOnUse">
<stop offset="0.00503" stop-color="#E75C5B"/>
<stop offset="0.1314" stop-color="#F13E44"/>
<stop offset="0.25965" stop-color="#F92732"/>
<stop offset="0.38038" stop-color="#FD1927"/>
<stop offset="0.48492" stop-color="#FF1423"/>
<stop offset="0.65075" stop-color="#FF1423"/>
<stop offset="0.81658" stop-color="#77BB9A"/>
<stop offset="0.9397" stop-color="#64D3AB"/>
</linearGradient>
<linearGradient id="paint3_linear_563_33273" x1="23024.8" y1="23944.4" x2="23024.8" y2="34170.2" gradientUnits="userSpaceOnUse">
<stop stop-color="#3FAB83"/>
<stop offset="1" stop-color="#66D5AD"/>
</linearGradient>
<linearGradient id="paint4_linear_563_33273" x1="52.9317" y1="37.5392" x2="138.907" y2="37.5392" gradientUnits="userSpaceOnUse">
<stop stop-color="#ED1C24"/>
<stop offset="0.00503" stop-color="#ED1C24"/>
<stop offset="1" stop-color="#E75C5B"/>
</linearGradient>
</defs>
</svg>

<svg width="180" height="160" fill="none" xmlns="http://www.w3.org/2000/svg"><path d="M109.524 102.224h-.004c-.039.033-.088.078-.099.088l-.017.016-.071.071-.002.002.193-.177zm0 0 1.116-1.116 2.496-2.496.073-.073c1.637-1.637 2.962-2.962 4.064-3.883 1.07-.895 2.281-1.724 3.687-1.835a6.005 6.005 0 0 1 5.033 2.085c.916 1.073 1.186 2.516 1.31 3.905.128 1.431.128 3.306.128 5.621v12.708c.001.814.001 1.531-.166 2.228a6.007 6.007 0 0 1-.718 1.735c-.375.611-.883 1.118-1.459 1.692l-.117.118-29.864 29.863-.054.055c-.746.746-1.389 1.389-1.962 1.875-.605.514-1.262.969-2.07 1.232a6.003 6.003 0 0 1-3.709-.001c-.808-.263-1.465-.718-2.07-1.232-.573-.486-1.216-1.13-1.961-1.876l-.054-.054-29.677-29.682-.118-.118c-.576-.575-1.084-1.082-1.458-1.693a6.002 6.002 0 0 1-.718-1.734c-.168-.697-.167-1.415-.166-2.228V104.482c0-2.337 0-4.227.127-5.667.124-1.396.392-2.847 1.31-3.922l1.521 1.299-1.52-1.299a6 6 0 0 1 5.033-2.085c1.408.111 2.624.947 3.699 1.847 1.109.928 2.445 2.265 4.097 3.917l.073.072 20.663 20.663c.808.809 1.33 1.329 1.76 1.694.411.349.606.438.712.472.398.131.833.132 1.232.004.107-.035.301-.122.713-.467.43-.361.953-.876 1.763-1.678a7956.58 7956.58 0 0 0 17.057-16.931l.194-.177zm-.155.139h-.001c.003-.002.003-.002.001 0z" fill="url(#a)" stroke="#fff" stroke-width="4"/><path d="m23.598 97.86.004.011.004.011a21.924 21.924 0 0 1 1.254 7.665 4.077 4.077 0 0 0 1.639 3.334c1.02.757 2.469 1.049 3.852.385 7.987-3.839 12.964-9.62 15.005-16.207 2.035-6.565 1.085-13.707-2.352-20.168-1.891-3.557-4.056-5.984-5.996-8.16-.297-.333-.588-.66-.873-.984-2.134-2.432-4.006-4.835-5.357-8.791l-.007-.022a21.923 21.923 0 0 1-1.255-7.665 4.076 4.076 0 0 0-1.638-3.333c-1.02-.757-2.47-1.05-3.853-.385-7.987 3.838-12.962 9.62-15.003 16.207-2.034 6.564-1.085 13.707 2.35 20.168 1.891 3.556 4.056 5.984 5.996 8.16l.012.013c.293.328.58.65.86.97 2.135 2.432 4.008 4.835 5.358 8.792z" stroke="#fff" stroke-width="4"/><path d="M41.238 73.83c6.446 12.117 3.358 26.371-11.753 33.633-1.264.607-2.648-.482-2.626-1.884a23.926 23.926 0 0 0-1.368-8.364c-2.946-8.629-8.262-10.534-12.354-18.228C6.695 66.87 9.78 52.616 24.891 45.354c1.264-.608 2.648.482 2.625 1.884a23.923 23.923 0 0 0 1.369 8.364c2.945 8.628 8.261 10.534 12.353 18.228z" fill="url(#b)"/><path d="M167.704 78.995c-4.096 7.694-9.412 9.595-12.365 18.22a23.93 23.93 0 0 0-1.375 8.367c.022 1.4-1.363 2.489-2.623 1.881-15.108-7.274-18.184-21.533-11.73-33.641 2.869-5.387 6.331-7.934 9.166-11.935a1.056 1.056 0 0 0-.872-1.68c-1.146 0-2.292.069-3.431.205a32.324 32.324 0 0 0-5.046 1.077 22.695 22.695 0 0 0-5.716 2.492c-1.938 1.188-5.275 3.884-8.91 8L113.66 83.124l-19.638 19.642c-1.584 1.585-2.376 2.377-3.29 2.674a4 4 0 0 1-2.472 0c-.913-.297-1.705-1.089-3.29-2.673L74.19 91.984 50.6 68.4l-.036-.036a4.546 4.546 0 0 1-.03-.032l-.028-.028c-.888-.938-14.494-15.484-14.494-26.136-.002-1.007.05-2.013.155-3.014a27.36 27.36 0 0 1 4.137-11.734 26.618 26.618 0 0 1 4.157-5.079 27.981 27.981 0 0 1 3.663-2.974 27.493 27.493 0 0 1 8.629-3.868 27.567 27.567 0 0 1 21.304 3.326c.171.106.257.16.368.24.089.064.204.156.287.228.103.09.19.177.365.352l6.093 6.095c1.584 1.585 2.376 2.377 3.29 2.674a4 4 0 0 0 2.473 0c.913-.297 1.705-1.09 3.29-2.674l5.811-5.814c.15-.15.225-.225.314-.304a4.38 4.38 0 0 1 .244-.2c.094-.071.166-.119.309-.215a26.981 26.981 0 0 1 30.39.303c3.005 2.093-.448 1.917 1.487 5.027l.019.028a.255.255 0 0 1-.036.323.272.272 0 0 1-.293.06c-.917-.367-.029.029-.118.017-1.655-.31-.352-.727-2.035-.727-.326 0 2.365 3.13 2.035 3.142-5.84.192-11.609 1.702-16.184 5.335-1.704 1.331-3.092 3.42-4.423 5.125l-19.72 19.719-.048.049a4 4 0 0 1-5.616-.002l-.049-.049-1.016-1.012-11.468-11.468-5.193-5.197a5.957 5.957 0 0 1-.162-.165c-.096-.103-.035-.034-.125-.142-.046-.054-.293-.368-.787-.995a5.832 5.832 0 0 0-5.009-2.211 5.81 5.81 0 0 0-5.36 6.234c.055.87.327 1.906.77 2.656l-.51-.69c1.554 2.363 19.002 19.405 27.565 27.716 1.573 1.526 2.36 2.29 3.266 2.574.797.25 1.657.244 2.45-.018.903-.298 1.682-1.077 3.24-2.635l25.25-25.25a28.555 28.555 0 0 1 33.649-3.036c.174.106.26.16.307.186.151.087.233.128.392.197.05.022.107.045.22.091a35.89 35.89 0 0 1 2.186.963c15.107 7.274 18.183 21.532 11.729 33.64z" fill="url(#c)"/><path d="M167.706 78.995c-4.096 7.694-9.412 9.595-12.366 18.22a23.929 23.929 0 0 0-1.374 8.367c.021 1.4-1.363 2.489-2.624 1.881-15.107-7.274-18.183-21.533-11.729-33.641 3.235-6.075 7.225-8.54 10.219-13.55a24.546 24.546 0 0 0 2.146-4.67 23.929 23.929 0 0 0 1.154-11.266.127.127 0 0 1 .176-.137c.894.35 1.791.73 2.668 1.154 15.108 7.275 18.184 21.533 11.73 33.642z" fill="url(#d)"/><path d="M116.864 32.942c3.293-2.895 9.819-5.733 15.484-5.563l.208.006c2.775.088 4.162.132 4.595-.217.39-.314.584-.75.557-1.25-.031-.555-.88-1.44-2.579-3.211-1.107-1.155-2.404-2.299-3.84-3.198-4.68-2.93-6.405-3.552-9.993-4.288a26.98 26.98 0 0 0-20.864 4.304c-1.357.948-3.68 3.233-5.82 5.453-1.798 1.866-2.697 2.799-3.633 3.11a3.82 3.82 0 0 1-2.536-.007c-.936-.315-1.834-1.255-3.63-3.137-2.242-2.35-4.726-4.797-6.203-5.765a27.568 27.568 0 0 0-19.25-4.205c-.78.118-1.169.177-1.705.433-.38.181-.97.622-1.252.935-.397.442-.563.798-.896 1.508a27.059 27.059 0 0 0-1.253 3.193 25.554 25.554 0 0 0-.889 3.574c-1.244 6.927.47 14.414 4.335 20.296.027.034.091-.005.074-.046-.267-.628-.54-1.54-.586-2.267a5.81 5.81 0 0 1 5.36-6.234 5.835 5.835 0 0 1 3.162.667c.606.322 1.672 1.634 2.322 2.246l5.793 5.797 11.468 11.468 1.015 1.012.05.049a4 4 0 0 0 5.615.002l.05-.049L111.74 37.84c1.766-1.89 3.477-3.448 5.123-4.897z" fill="url(#e)"/><defs><linearGradient id="a" x1="53.09" y1="122.511" x2="125.431" y2="122.511" gradientUnits="userSpaceOnUse"><stop stop-color="#43B088"/><stop offset=".005" stop-color="#43B088"/><stop offset="1" stop-color="#52CC9F"/></linearGradient><linearGradient id="b" x1="27.189" y1="44.114" x2="27.189" y2="108.703" gradientUnits="userSpaceOnUse"><stop stop-color="#3FAB83"/><stop offset="1" stop-color="#66D5AD"/></linearGradient><linearGradient id="c" x1="36.012" y1="61.683" x2="170.891" y2="61.683" gradientUnits="userSpaceOnUse"><stop offset=".005" stop-color="#E75C5B"/><stop offset=".131" stop-color="#F13E44"/><stop offset=".26" stop-color="#F92732"/><stop offset=".38" stop-color="#FD1927"/><stop offset=".485" stop-color="#FF1423"/><stop offset=".651" stop-color="#FF1423"/><stop offset=".817" stop-color="#77BB9A"/><stop offset=".94" stop-color="#64D3AB"/></linearGradient><linearGradient id="d" x1="23024.8" y1="23944.4" x2="23024.8" y2="34170.2" gradientUnits="userSpaceOnUse"><stop stop-color="#3FAB83"/><stop offset="1" stop-color="#66D5AD"/></linearGradient><linearGradient id="e" x1="52.932" y1="37.539" x2="138.907" y2="37.539" gradientUnits="userSpaceOnUse"><stop stop-color="#ED1C24"/><stop offset=".005" stop-color="#ED1C24"/><stop offset="1" stop-color="#E75C5B"/></linearGradient></defs></svg>
